X: 2329
T: MORTON'S HORNPIPE
%R: hornpipe, reel
B: James Kerr "Merry Melodies" v.2 p.36 #329
Z: 2016 John Chambers <jc:trillian.mit.edu>
N: Added rest between the strains to fix the rhythm.
M: C
L: 1/8
K: G
D2 |\
GBGB AcAc | BcdB G2(AB) |\
cAcA BGBG | AcAF GFED |\
GBGB AcAc | BcdB c2(Bd) |\
egfa gedc | B2G2 G2 |]
z2 |\
Bgg2 dBB2 | Bgg2 dBB2 |\
eaaa a2a2 | ABAG GFED |\
GBGB AcAc | BcdB c2(Bd) |\
egfa gedc | B2G2 G2 |]

%%sep 1 1 500
%%sep 1 1 500

